X:1
T:Title
%%score { ( 1 3 ) | ( 2 4 ) }
L:1/8
M:4/4
K:F
V:1 treble nm="Grand Piano"
V:3 treble 
V:2 bass 
V:4 bass 
V:1
 z4 z2[Q:1/4=108] [DF][^CE] | [DF]2 [DB]2 [^CA]2 [CG]2 | [_EA]2 [EA]4 FF | F2 c2 G2 A2 | %4
[M:3/4] [DB]6 |[M:1/4] [DF][^CE] |[M:4/4] [DF]2 [DB]2 [^CA]2 [CG]2 | [_EA]2 [EA]4 [FA][GB] | %8
 [Ec]2 [EG]2 [EB]2 z B, |[M:3/4] F6 |[M:1/4] [DF][DF] |[M:4/4] [DB]2 [DB]2 [^CA]2 [CG]2 | %12
 [_EA]2 [EA]4 FF | c2 =B2 c2 F2 | d6 dd | [^Fd]2 [FA]2 [Fd]2 [DFc]2 | [DGc]2 [DGB]4 [DGB][DGB] | %17
 [CGB]2 [CAc]2 [CFA]2 [B,EG]2 |[M:3/4] F6 |[M:1/4] [DF][DF] |[M:4/4] [DB]2 [DB]2 [^CA]2 [CG]2 | %21
 [_EA]2 [EA]4 FF | c2 A2 G2 F2 | [DB]6 [DB][_Ec] | [Fd]2 [Fd]2 [Fc]2 [FB]2 | %25
 [_EG]2 [EB]4 [FB][Fc] | d2 f2 d2 z _E |[M:3/4] [DFB]6 |] %28
V:2
 z4 z2 [B,,B,][B,,B,] | [B,,B,]2 [B,,F,]2 [B,,E,]2 [B,,E,]2 | [C,F,]2 [C,F,]4 [F,A,_E][F,A,E] | %3
 [F,A,_E]2 [F,CE]2 [F,CE]2 [F,A,E]2 |[M:3/4] [B,,B,]6 |[M:1/4] [B,,B,][B,,B,] | %6
[M:4/4] [B,,B,]2 [B,,F,]2 [B,,E,]2 [B,,E,]2 | [C,F,]2 [C,F,]4 [C,C][C,C] | %8
 [C,G,]2 [C,C]2 [C,B,]2 .[C,C]2 |[M:3/4] [A,C]2 z2 z2 |[M:1/4] [B,,B,][B,,B,] | %11
[M:4/4] [B,,F,]2 [B,,F,]2 [B,,E,]2 [B,,E,]2 | [C,F,]2 [C,F,]4 [F,A,_E][F,A,E] | %13
 [F,A,_E]2 [F,_A,D]2 [F,=A,E]2[K:treble] [A,CE]2 | [B,F]6 [B,F][B,F] | [D,A,]2 [D,D]2 [D,A,]2 D,2 | %16
 G,2 G,4 G,F, | E,2 C,2 C,2 C,2 |[M:3/4] z2 B,2 C2 |[M:1/4] [B,,B,][B,,B,] | %20
[M:4/4] [B,,F,]2 [B,,F,]2 [B,,E,]2 [B,,E,]2 | [C,F,]2 [C,F,]4 [F,A,_E][F,A,E] | %22
 [F,A,_E]2 [F,CE]2 [F,B,E]2 [F,A,E]2 | [B,,B,]6 [B,,B,][B,,B,] | %24
 [B,,B,]2 [B,,B,]2 [C,A,]2 [D,B,]2 | [_E,B,]2 [E,G,]4 [=E,B,][E,C] | %26
 [F,DF]2 [F,DF]2 [F,DF]2 .[F,CF]2 |[M:3/4] B,,6 |] %28
V:3
 x8 | x8 | x8 | x8 |[M:3/4] x6 |[M:1/4] x2 |[M:4/4] x8 | x8 | z4 z2 E2 |[M:3/4] z2 D2 _E2 | %10
[M:1/4] x2 |[M:4/4] x8 | x8 | x8 | x8 | x8 | x8 | x8 |[M:3/4] [A,C]2 D2 _E2 |[M:1/4] x2 | %20
[M:4/4] x8 | x8 | x8 | x8 | x8 | x8 | z4 z2 c2 |[M:3/4] x6 |] %28
V:4
 x8 | x8 | x8 | x8 |[M:3/4] x6 |[M:1/4] x2 |[M:4/4] x8 | x8 | x8 |[M:3/4] F,2- [F,-B,]2 [F,C]2 | %10
[M:1/4] x2 |[M:4/4] x8 | x8 | x6[K:treble] x2 | x8 | x8 | x8 | x8 |[M:3/4] F,6 |[M:1/4] x2 | %20
[M:4/4] x8 | x8 | x8 | x8 | x8 | x8 | x8 |[M:3/4] x6 |] %28

